; generated by PrusaSlicer 2.3.0+linux-x64 on 2021-05-11 at 12:17:05 UTC

; 

; external perimeters extrusion width = 0.45mm
; perimeters extrusion width = 0.45mm
; infill extrusion width = 0.45mm
; solid infill extrusion width = 0.45mm
; top infill extrusion width = 0.40mm
; first layer extrusion width = 0.42mm

M201 X500 Y500 Z100 E5000 ; sets maximum accelerations, mm/sec^2
M203 X500 Y500 Z10 E60 ; sets maximum feedrates, mm/sec
M204 P500 R1000 T500 ; sets acceleration (P, T) and retract acceleration (R), mm/sec^2
M205 X5.00 Y5.00 Z0.40 E5.00 ; sets the jerk limits, mm/sec
M205 S0 T0 ; sets the minimum extruding and travel feed rate, mm/sec
M107
;TYPE:Custom
G90 ; use absolute coordinates
M83 ; extruder relative mode
M104 S205 ; set extruder temp
M140 S60 ; set bed temp
M190 S60 ; wait for bed temp
M109 S205 ; wait for extruder temp
G28 ; home all
G1 Z2 F240
G1 X2 Y10 F3000
G1 Z0.28 F240
G92 E0
G1 Y190 E15 F1500 ; intro line
G1 X2.3 F5000
G92 E0
G1 Y10 E15 F1200 ; intro line
G92 E0
G21 ; set units to millimeters
G90 ; use absolute coordinates
M83 ; use relative distances for extrusion
; Filament gcode
;LAYER_CHANGE
;Z:0.2
;HEIGHT:0.2
;BEFORE_LAYER_CHANGE
G92 E0
;0.2


G1 E-6.00000 F5400.000
G1 Z0.200 F9000.000
;AFTER_LAYER_CHANGE
;0.2
G1 X17.875 Y27.520
G1 E6.00000 F2400.000
;TYPE:Skirt
;WIDTH:0.42
G1 F1200.000
G1 X18.474 Y25.492 E0.06631
G1 X18.969 Y24.388 E0.03791
G1 X19.571 Y23.336 E0.03803
G1 X20.871 Y21.643 E0.06690
G1 X21.741 Y20.782 E0.03839
G1 X22.710 Y19.998 E0.03910
G1 X23.754 Y19.315 E0.03910
G1 X24.861 Y18.741 E0.03910
G1 X26.020 Y18.281 E0.03910
G1 X27.220 Y17.939 E0.03910
G1 X28.447 Y17.721 E0.03910
G1 X29.691 Y17.627 E0.03910
G1 X190.089 Y17.623 E5.02916
G1 X192.212 Y17.822 E0.06687
G1 X193.393 Y18.097 E0.03803
G1 X194.570 Y18.497 E0.03898
G1 X195.701 Y19.014 E0.03898
G1 X196.749 Y19.625 E0.03803
G1 X198.445 Y20.951 E0.06749
G1 X199.288 Y21.818 E0.03791
G1 X200.064 Y22.794 E0.03910
G1 X200.736 Y23.840 E0.03898
G1 X201.287 Y24.920 E0.03803
G1 X201.996 Y26.949 E0.06738
G1 X202.237 Y28.138 E0.03803
G1 X202.362 Y29.378 E0.03910
G1 X202.376 Y190.214 E5.04288
G1 X202.293 Y191.450 E0.03886
G1 X202.092 Y192.643 E0.03791
G1 X201.466 Y194.663 E0.06631
G1 X200.503 Y196.549 E0.06642
G1 X199.814 Y197.543 E0.03791
G1 X199.018 Y198.478 E0.03850
G1 X198.107 Y199.353 E0.03958
G1 X197.125 Y200.121 E0.03910
G1 X196.070 Y200.787 E0.03910
G1 X194.954 Y201.343 E0.03910
G1 X193.788 Y201.784 E0.03910
G1 X192.579 Y202.106 E0.03922
G1 X191.348 Y202.304 E0.03910
G1 X190.091 Y202.377 E0.03946
G1 X29.702 Y202.373 E5.02889
G1 X27.585 Y202.139 E0.06678
G1 X26.412 Y201.845 E0.03791
G1 X25.245 Y201.427 E0.03886
G1 X23.366 Y200.449 E0.06643
G1 X22.378 Y199.752 E0.03791
G1 X21.461 Y198.959 E0.03803
G1 X20.583 Y198.031 E0.04006
G1 X19.822 Y197.042 E0.03910
G1 X19.164 Y195.979 E0.03922
G1 X18.618 Y194.862 E0.03898
G1 X18.186 Y193.688 E0.03922
G1 X17.875 Y192.480 E0.03910
G1 X17.687 Y191.247 E0.03910
G1 X17.624 Y190.006 E0.03898
G1 X17.630 Y29.617 E5.02889
G1 X17.868 Y27.579 E0.06431
G1 E-4.20000 F5400.000
;WIPE_START
G1 F7200.000
G1 X18.474 Y25.492 E-1.54889
G1 X18.567 Y25.285 E-0.16111
;WIPE_END
G1 E-0.09000 F5400.000
G1 X17.868 Y27.579 F9000.000
G1 X17.868 Y27.579
G1 X180.694 Y30.313
G1 E6.00000 F2400.000
;TYPE:Perimeter
G1 F1200.000
G1 X180.710 Y29.375 E0.02942
G1 X180.820 Y28.443 E0.02942
G1 X181.023 Y27.527 E0.02942
G1 X181.317 Y26.636 E0.02942
G1 X181.700 Y25.779 E0.02942
G1 X182.167 Y24.965 E0.02942
G1 X182.713 Y24.203 E0.02942
G1 X183.337 Y23.495 E0.02957
G1 X183.781 Y23.069 E0.01931
G1 X184.515 Y22.476 E0.02957
G1 X185.304 Y21.959 E0.02957
G1 X185.845 Y21.666 E0.01931
G1 X186.710 Y21.289 E0.02957
G1 X187.603 Y21.002 E0.02942
G1 X188.521 Y20.806 E0.02942
G1 X189.453 Y20.704 E0.02942
G1 X190.392 Y20.696 E0.02942
G1 X191.326 Y20.783 E0.02942
G1 X192.252 Y20.964 E0.02957
G1 X192.844 Y21.132 E0.01931
G1 X193.726 Y21.466 E0.02957
G1 X194.566 Y21.884 E0.02942
G1 X195.360 Y22.384 E0.02942
G1 X196.099 Y22.962 E0.02942
G1 X196.776 Y23.612 E0.02942
G1 X197.385 Y24.326 E0.02942
G1 X197.918 Y25.098 E0.02942
G1 X198.371 Y25.919 E0.02942
G1 X198.739 Y26.782 E0.02942
G1 X199.019 Y27.678 E0.02942
G1 X199.207 Y28.597 E0.02942
G1 X199.301 Y29.531 E0.02942
G1 X199.301 Y30.469 E0.02942
G1 X199.207 Y31.403 E0.02942
G1 X199.019 Y32.322 E0.02942
G1 X198.739 Y33.218 E0.02942
G1 X198.371 Y34.081 E0.02942
G1 X197.918 Y34.902 E0.02942
G1 X197.385 Y35.674 E0.02942
G1 X196.776 Y36.388 E0.02942
G1 X196.099 Y37.038 E0.02942
G1 X195.360 Y37.616 E0.02942
G1 X194.562 Y38.119 E0.02957
G1 X194.015 Y38.403 E0.01931
G1 X193.145 Y38.765 E0.02957
G1 X192.247 Y39.037 E0.02942
G1 X191.326 Y39.217 E0.02942
G1 X190.392 Y39.304 E0.02942
G1 X189.453 Y39.296 E0.02942
G1 X188.521 Y39.194 E0.02942
G1 X187.598 Y38.997 E0.02957
G1 X187.009 Y38.819 E0.01931
G1 X186.132 Y38.471 E0.02957
G1 X185.300 Y38.038 E0.02942
G1 X184.515 Y37.524 E0.02942
G1 X183.785 Y36.934 E0.02942
G1 X183.119 Y36.274 E0.02942
G1 X182.523 Y35.549 E0.02942
G1 X182.002 Y34.769 E0.02942
G1 X181.563 Y33.939 E0.02942
G1 X181.209 Y33.070 E0.02942
G1 X180.945 Y32.170 E0.02942
G1 X180.773 Y31.248 E0.02942
G1 X180.699 Y30.373 E0.02754
G1 X180.323 Y30.404 F9000.000
;TYPE:External perimeter
G1 F1200.000
G1 X180.333 Y29.349 E0.03308
G1 X180.447 Y28.380 E0.03061
G1 X180.659 Y27.427 E0.03061
G1 X180.965 Y26.500 E0.03061
G1 X181.363 Y25.608 E0.03061
G1 X181.849 Y24.761 E0.03061
G1 X182.418 Y23.968 E0.03061
G1 X183.064 Y23.234 E0.03067
G1 X183.532 Y22.786 E0.02030
G1 X184.292 Y22.170 E0.03067
G1 X185.110 Y21.635 E0.03067
G1 X185.680 Y21.327 E0.02030
G1 X186.576 Y20.936 E0.03067
G1 X187.506 Y20.637 E0.03061
G1 X188.461 Y20.433 E0.03061
G1 X189.431 Y20.327 E0.03061
G1 X190.408 Y20.319 E0.03061
G1 X191.380 Y20.409 E0.03061
G1 X192.340 Y20.597 E0.03067
G1 X192.962 Y20.774 E0.02030
G1 X193.877 Y21.120 E0.03067
G1 X194.751 Y21.555 E0.03061
G1 X195.577 Y22.076 E0.03061
G1 X196.346 Y22.677 E0.03061
G1 X197.051 Y23.353 E0.03061
G1 X197.684 Y24.096 E0.03061
G1 X198.239 Y24.899 E0.03061
G1 X198.711 Y25.754 E0.03061
G1 X199.094 Y26.652 E0.03061
G1 X199.384 Y27.584 E0.03061
G1 X199.580 Y28.540 E0.03061
G1 X199.678 Y29.512 E0.03061
G1 X199.678 Y30.488 E0.03061
G1 X199.580 Y31.460 E0.03061
G1 X199.384 Y32.416 E0.03061
G1 X199.094 Y33.348 E0.03061
G1 X198.711 Y34.246 E0.03061
G1 X198.239 Y35.101 E0.03061
G1 X197.684 Y35.904 E0.03061
G1 X197.051 Y36.647 E0.03061
G1 X196.346 Y37.323 E0.03061
G1 X195.577 Y37.924 E0.03061
G1 X194.750 Y38.446 E0.03067
G1 X194.175 Y38.745 E0.02030
G1 X193.272 Y39.121 E0.03067
G1 X192.338 Y39.404 E0.03061
G1 X191.380 Y39.591 E0.03061
G1 X190.408 Y39.681 E0.03061
G1 X189.431 Y39.673 E0.03061
G1 X188.461 Y39.567 E0.03061
G1 X187.504 Y39.363 E0.03067
G1 X186.884 Y39.175 E0.02030
G1 X185.975 Y38.814 E0.03067
G1 X185.109 Y38.364 E0.03061
G1 X184.292 Y37.830 E0.03061
G1 X183.533 Y37.215 E0.03061
G1 X182.840 Y36.528 E0.03061
G1 X182.219 Y35.774 E0.03061
G1 X181.678 Y34.962 E0.03061
G1 X181.221 Y34.099 E0.03061
G1 X180.853 Y33.195 E0.03061
G1 X180.578 Y32.258 E0.03061
G1 X180.398 Y31.298 E0.03061
G1 X180.328 Y30.464 E0.02625
G1 X180.661 Y30.191 F9000.000
G1 E-6.00000 F5400.000
G1 X195.137 Y22.378 F9000.000
G1 E6.00000 F2400.000
;TYPE:Solid infill
;WIDTH:0.426706
G1 F1200.000
G1 X196.596 Y23.837 E0.06585
G1 X197.160 Y24.498 E0.02773
G1 X197.677 Y25.247 E0.02903
G1 X197.940 Y25.723 E0.01736
G1 X194.268 Y22.051 E0.16572
G1 X193.613 Y21.725 E0.02335
G1 X193.269 Y21.595 E0.01173
G1 X198.414 Y26.740 E0.23217
G1 X198.474 Y26.880 E0.00488
G1 X198.683 Y27.552 E0.02245
G1 X192.444 Y21.312 E0.28159
G1 X192.186 Y21.239 E0.00856
G1 X191.740 Y21.152 E0.01448
G1 X198.849 Y28.261 E0.32082
G1 X198.927 Y28.640 E0.01236
G1 X198.954 Y28.908 E0.00860
G1 X191.091 Y21.045 E0.35487
G1 X190.492 Y20.989 E0.01917
G1 X199.015 Y29.512 E0.38462
G1 X199.018 Y30.058 E0.01743
G1 X189.943 Y20.983 E0.40957
G1 X189.411 Y20.993 E0.01699
G1 X199.005 Y30.587 E0.43299
G1 X198.955 Y31.080 E0.01581
G1 X188.921 Y21.047 E0.45282
G1 X188.444 Y21.112 E0.01539
G1 X198.887 Y31.555 E0.47130
G1 X198.795 Y32.006 E0.01468
G1 X187.996 Y21.207 E0.48734
G1 X187.559 Y21.313 E0.01435
G1 X198.686 Y32.439 E0.50214
G1 X198.557 Y32.853 E0.01383
G1 X187.149 Y21.445 E0.51486
G1 X186.744 Y21.583 E0.01365
G1 X198.416 Y33.255 E0.52678
G1 X198.254 Y33.635 E0.01320
G1 X186.366 Y21.748 E0.53651
G1 X185.988 Y21.912 E0.01316
G1 X198.087 Y34.011 E0.54602
G1 X197.894 Y34.361 E0.01275
G1 X185.634 Y22.102 E0.55327
G1 X185.294 Y22.304 E0.01264
G1 X197.701 Y34.711 E0.55994
G1 X197.482 Y35.035 E0.01248
G1 X184.965 Y22.518 E0.56489
G1 X184.641 Y22.737 E0.01248
G1 X197.261 Y35.356 E0.56951
G1 X197.023 Y35.662 E0.01234
G1 X184.341 Y22.980 E0.57235
G1 X184.041 Y23.222 E0.01232
G1 X196.774 Y35.955 E0.57462
G1 X196.570 Y36.194 E0.01003
G1 X196.519 Y36.243 E0.00225
G1 X183.759 Y23.482 E0.57588
G1 X183.486 Y23.753 E0.01225
G1 X196.242 Y36.509 E0.57566
G1 X195.965 Y36.774 E0.01225
G1 X183.232 Y24.042 E0.57463
G1 X182.978 Y24.330 E0.01227
G1 X195.665 Y37.018 E0.57259
G1 X195.361 Y37.256 E0.01234
G1 X182.747 Y24.642 E0.56928
G1 X182.520 Y24.958 E0.01241
G1 X195.043 Y37.481 E0.56517
G1 X194.710 Y37.691 E0.01256
G1 X182.308 Y25.288 E0.55974
G1 X182.110 Y25.633 E0.01269
G1 X194.374 Y37.898 E0.55350
G1 X194.017 Y38.083 E0.01285
G1 X181.918 Y25.984 E0.54603
G1 X181.751 Y26.359 E0.01311
G1 X193.643 Y38.251 E0.53670
G1 X193.260 Y38.411 E0.01324
G1 X181.583 Y26.735 E0.52697
G1 X181.448 Y27.142 E0.01370
G1 X192.861 Y38.556 E0.51510
G1 X192.445 Y38.682 E0.01389
G1 X181.313 Y27.550 E0.50238
G1 X181.210 Y27.990 E0.01441
G1 X192.015 Y38.794 E0.48763
G1 X191.561 Y38.883 E0.01476
G1 X181.111 Y28.434 E0.47159
G1 X181.049 Y28.914 E0.01545
G1 X191.090 Y38.955 E0.45317
G1 X190.593 Y39.001 E0.01592
G1 X180.992 Y29.400 E0.43331
G1 X180.983 Y29.934 E0.01704
G1 X190.068 Y39.018 E0.41000
G1 X189.520 Y39.014 E0.01747
G1 X180.992 Y30.486 E0.38488
G1 X181.042 Y31.078 E0.01898
G1 X188.917 Y38.953 E0.35538
G1 X188.566 Y38.914 E0.01126
G1 X188.273 Y38.852 E0.00956
G1 X181.150 Y31.729 E0.32145
G1 X181.220 Y32.104 E0.01217
G1 X181.319 Y32.441 E0.01120
G1 X187.572 Y38.694 E0.28219
G1 X187.102 Y38.552 E0.01567
G1 X186.745 Y38.410 E0.01225
G1 X181.589 Y33.254 E0.23270
G1 X181.819 Y33.820 E0.01950
G1 X182.053 Y34.260 E0.01590
G1 X185.742 Y37.950 E0.16652
G1 X185.442 Y37.794 E0.01078
G1 X184.681 Y37.296 E0.02903
G1 X183.974 Y36.723 E0.02903
G1 X182.377 Y35.127 E0.07206
G1 E-4.20000 F5400.000
;WIPE_START
G1 F7200.000
G1 X183.974 Y36.723 E-1.60892
G1 X184.084 Y36.813 E-0.10108
;WIPE_END
G1 E-0.09000 F5400.000
G1 X182.377 Y35.127 F9000.000
G1 X182.377 Y35.127
G1 X116.742 Y103.579
G1 E6.00000 F2400.000
;TYPE:Perimeter
;WIDTH:0.42
G1 F1200.000
G1 X117.385 Y104.326 E0.03091
G1 X117.918 Y105.098 E0.02942
G1 X118.371 Y105.919 E0.02942
G1 X118.739 Y106.782 E0.02942
G1 X119.019 Y107.678 E0.02942
G1 X119.207 Y108.597 E0.02942
G1 X119.301 Y109.531 E0.02942
G1 X119.301 Y110.469 E0.02942
G1 X119.207 Y111.403 E0.02942
G1 X119.019 Y112.322 E0.02942
G1 X118.739 Y113.218 E0.02942
G1 X118.371 Y114.081 E0.02942
G1 X117.918 Y114.902 E0.02942
G1 X117.385 Y115.674 E0.02942
G1 X116.776 Y116.388 E0.02942
G1 X116.099 Y117.038 E0.02942
G1 X115.360 Y117.616 E0.02942
G1 X114.562 Y118.119 E0.02957
G1 X114.015 Y118.403 E0.01931
G1 X113.145 Y118.765 E0.02957
G1 X112.247 Y119.037 E0.02942
G1 X111.326 Y119.217 E0.02942
G1 X110.392 Y119.304 E0.02942
G1 X109.453 Y119.296 E0.02942
G1 X108.521 Y119.194 E0.02942
G1 X107.598 Y118.997 E0.02957
G1 X107.009 Y118.819 E0.01931
G1 X106.132 Y118.471 E0.02957
G1 X105.300 Y118.038 E0.02942
G1 X104.515 Y117.524 E0.02942
G1 X103.785 Y116.934 E0.02942
G1 X103.119 Y116.274 E0.02942
G1 X102.523 Y115.549 E0.02942
G1 X102.002 Y114.769 E0.02942
G1 X101.563 Y113.939 E0.02942
G1 X101.209 Y113.070 E0.02942
G1 X100.945 Y112.170 E0.02942
G1 X100.773 Y111.248 E0.02942
G1 X100.694 Y110.313 E0.02942
G1 X100.710 Y109.375 E0.02942
G1 X100.820 Y108.443 E0.02942
G1 X101.023 Y107.527 E0.02942
G1 X101.317 Y106.636 E0.02942
G1 X101.700 Y105.779 E0.02942
G1 X102.167 Y104.965 E0.02942
G1 X102.713 Y104.203 E0.02942
G1 X103.337 Y103.495 E0.02957
G1 X103.781 Y103.069 E0.01931
G1 X104.515 Y102.476 E0.02957
G1 X105.304 Y101.959 E0.02957
G1 X105.845 Y101.666 E0.01931
G1 X106.710 Y101.289 E0.02957
G1 X107.603 Y101.002 E0.02942
G1 X108.521 Y100.806 E0.02942
G1 X109.453 Y100.704 E0.02942
G1 X110.392 Y100.696 E0.02942
G1 X111.326 Y100.783 E0.02942
G1 X112.252 Y100.964 E0.02957
G1 X112.844 Y101.132 E0.01931
G1 X113.726 Y101.466 E0.02957
G1 X114.566 Y101.884 E0.02942
G1 X115.360 Y102.384 E0.02942
G1 X116.099 Y102.962 E0.02942
G1 X116.698 Y103.537 E0.02604
G1 X116.959 Y103.265 F9000.000
;TYPE:External perimeter
G1 F1200.000
G1 X117.684 Y104.096 E0.03457
G1 X118.239 Y104.899 E0.03061
G1 X118.711 Y105.754 E0.03061
G1 X119.094 Y106.652 E0.03061
G1 X119.384 Y107.584 E0.03061
G1 X119.580 Y108.540 E0.03061
G1 X119.678 Y109.512 E0.03061
G1 X119.678 Y110.488 E0.03061
G1 X119.580 Y111.460 E0.03061
G1 X119.384 Y112.416 E0.03061
G1 X119.094 Y113.348 E0.03061
G1 X118.711 Y114.246 E0.03061
G1 X118.239 Y115.101 E0.03061
G1 X117.684 Y115.904 E0.03061
G1 X117.051 Y116.647 E0.03061
G1 X116.346 Y117.323 E0.03061
G1 X115.577 Y117.924 E0.03061
G1 X114.750 Y118.446 E0.03067
G1 X114.175 Y118.745 E0.02030
G1 X113.272 Y119.121 E0.03067
G1 X112.338 Y119.404 E0.03061
G1 X111.380 Y119.591 E0.03061
G1 X110.408 Y119.681 E0.03061
G1 X109.431 Y119.673 E0.03061
G1 X108.461 Y119.567 E0.03061
G1 X107.504 Y119.363 E0.03067
G1 X106.884 Y119.175 E0.02030
G1 X105.975 Y118.814 E0.03067
G1 X105.109 Y118.364 E0.03061
G1 X104.292 Y117.830 E0.03061
G1 X103.533 Y117.215 E0.03061
G1 X102.840 Y116.528 E0.03061
G1 X102.219 Y115.774 E0.03061
G1 X101.678 Y114.962 E0.03061
G1 X101.221 Y114.099 E0.03061
G1 X100.853 Y113.195 E0.03061
G1 X100.578 Y112.258 E0.03061
G1 X100.398 Y111.298 E0.03061
G1 X100.316 Y110.326 E0.03061
G1 X100.333 Y109.349 E0.03061
G1 X100.447 Y108.380 E0.03061
G1 X100.659 Y107.427 E0.03061
G1 X100.965 Y106.500 E0.03061
G1 X101.363 Y105.608 E0.03061
G1 X101.849 Y104.761 E0.03061
G1 X102.418 Y103.968 E0.03061
G1 X103.064 Y103.234 E0.03067
G1 X103.532 Y102.786 E0.02030
G1 X104.292 Y102.170 E0.03067
G1 X105.110 Y101.635 E0.03067
G1 X105.680 Y101.327 E0.02030
G1 X106.576 Y100.936 E0.03067
G1 X107.506 Y100.637 E0.03061
G1 X108.461 Y100.433 E0.03061
G1 X109.431 Y100.327 E0.03061
G1 X110.408 Y100.319 E0.03061
G1 X111.380 Y100.409 E0.03061
G1 X112.340 Y100.597 E0.03067
G1 X112.962 Y100.774 E0.02030
G1 X113.877 Y101.120 E0.03067
G1 X114.751 Y101.555 E0.03061
G1 X115.577 Y102.076 E0.03061
G1 X116.346 Y102.677 E0.03061
G1 X116.916 Y103.223 E0.02475
G1 X116.848 Y103.649 F9000.000
G1 X115.137 Y102.378
;TYPE:Solid infill
;WIDTH:0.426706
G1 F1200.000
G1 X116.596 Y103.837 E0.06585
G1 X117.160 Y104.498 E0.02773
G1 X117.677 Y105.247 E0.02903
G1 X117.940 Y105.723 E0.01736
G1 X114.268 Y102.051 E0.16572
G1 X113.613 Y101.725 E0.02335
G1 X113.269 Y101.595 E0.01173
G1 X118.414 Y106.740 E0.23217
G1 X118.474 Y106.880 E0.00488
G1 X118.683 Y107.552 E0.02245
G1 X112.444 Y101.312 E0.28159
G1 X112.186 Y101.239 E0.00856
G1 X111.740 Y101.152 E0.01448
G1 X118.849 Y108.261 E0.32082
G1 X118.927 Y108.640 E0.01236
G1 X118.954 Y108.908 E0.00860
G1 X111.091 Y101.045 E0.35487
G1 X110.492 Y100.989 E0.01917
G1 X119.015 Y109.512 E0.38462
G1 X119.018 Y110.058 E0.01743
G1 X109.943 Y100.983 E0.40957
G1 X109.411 Y100.993 E0.01699
G1 X119.005 Y110.587 E0.43299
G1 X118.955 Y111.080 E0.01581
G1 X108.921 Y101.047 E0.45282
G1 X108.444 Y101.112 E0.01539
G1 X118.887 Y111.555 E0.47130
G1 X118.795 Y112.006 E0.01468
G1 X107.996 Y101.207 E0.48734
G1 X107.559 Y101.313 E0.01435
G1 X118.686 Y112.439 E0.50214
G1 X118.557 Y112.853 E0.01383
G1 X107.149 Y101.445 E0.51486
G1 X106.744 Y101.583 E0.01365
G1 X118.416 Y113.255 E0.52678
G1 X118.254 Y113.635 E0.01320
G1 X106.366 Y101.748 E0.53651
G1 X105.988 Y101.912 E0.01316
G1 X118.087 Y114.011 E0.54602
G1 X117.894 Y114.361 E0.01275
G1 X105.634 Y102.102 E0.55327
G1 X105.294 Y102.304 E0.01264
G1 X117.701 Y114.711 E0.55994
G1 X117.482 Y115.035 E0.01248
G1 X104.965 Y102.518 E0.56489
